X: 121
Q: "slow"
M: 3/4
L: 1/8
K: F
V: 1
d2 (fd)(TcA) | c>dcBTAG | JA2 D2 (TE3/D//E//) | F4 :|
|: f>c |\
d2 f>g (Tf3/f//g//) | a4 fg | a2 (ba)(Tgf) | g4 f>g |\
Ja3 ba>g | Ta2 (gf)(fg) | a>ga>bTa>g | a>g f2 c2 |
d2 f>g (Tg3/f//g//) | a4 fg | agfdTc{B}A | G3 A~B>c |\
d2 (fd)Tc>A | c>dc>BTA>G | JA2D2 (E3/D//E//) | F4 :|
V: 2 clef=bass middle=d
f2 |\
b4 "6"a2 | "6"e4 c2 | f2 b2 "6"g2 | f4 :|
|: f2 |\
b4 "6"a2 | "6"e4 c2 | f2 b2 "6"g2 | f4 :|

